app/src/main/assets/luts/loglut.cube
TITLE "loglut"
# Restore LUT for CameraManager WDR tonemap curve
# WDR curve in app: wdr = linear^0.35
# This LUT maps WDR output back to standard display gamma (2.2)
# Effective output: display = wdr^1.2987012987012987
DOMAIN_MIN 0.0 0.0 0.0
DOMAIN_MAX 1.0 1.0 1.0
LUT_3D_SIZE 33
0.00000000 0.00000000 0.00000000
0.01109838 0.00000000 0.00000000
0.02730284 0.00000000 0.00000000
0.04622722 0.00000000 0.00000000
0.06716699 0.00000000 0.00000000
0.08974557 0.00000000 0.00000000
0.11372235 0.00000000 0.00000000
0.13892797 0.00000000 0.00000000
0.16523571 0.00000000 0.00000000
0.19254656 0.00000000 0.00000000
0.22078068 0.00000000 0.00000000
0.24987212 0.00000000 0.00000000
0.27976530 0.00000000 0.00000000
0.31041268 0.00000000 0.00000000
0.34177299 0.00000000 0.00000000
0.37381008 0.00000000 0.00000000
0.40649195 0.00000000 0.00000000
0.43979003 0.00000000 0.00000000
0.47367864 0.00000000 0.00000000
0.50813456 0.00000000 0.00000000
0.54313666 0.00000000 0.00000000
0.57866562 0.00000000 0.00000000
0.61470373 0.00000000 0.00000000
0.65123462 0.00000000 0.00000000
0.68824315 0.00000000 0.00000000
0.72571529 0.00000000 0.00000000
0.76363793 0.00000000 0.00000000
0.80199885 0.00000000 0.00000000
0.84078660 0.00000000 0.00000000
0.87999043 0.00000000 0.00000000
0.91960021 0.00000000 0.00000000
0.95960640 0.00000000 0.00000000
1.00000000 0.00000000 0.00000000
0.00000000 0.01109838 0.00000000
0.01109838 0.01109838 0.00000000
0.02730284 0.01109838 0.00000000
0.04622722 0.01109838 0.00000000
0.06716699 0.01109838 0.00000000
0.08974557 0.01109838 0.00000000
0.11372235 0.01109838 0.00000000
0.13892797 0.01109838 0.00000000
0.16523571 0.01109838 0.00000000
0.19254656 0.01109838 0.00000000
0.22078068 0.01109838 0.00000000
0.24987212 0.01109838 0.00000000
0.27976530 0.01109838 0.00000000
0.31041268 0.01109838 0.00000000
0.34177299 0.01109838 0.00000000
0.37381008 0.01109838 0.00000000
0.40649195 0.01109838 0.00000000
0.43979003 0.01109838 0.00000000
0.47367864 0.01109838 0.00000000
0.50813456 0.01109838 0.00000000
0.54313666 0.01109838 0.00000000
0.57866562 0.01109838 0.00000000
0.61470373 0.01109838 0.00000000
0.65123462 0.01109838 0.00000000
0.68824315 0.01109838 0.00000000
0.72571529 0.01109838 0.00000000
0.76363793 0.01109838 0.00000000
0.80199885 0.01109838 0.00000000
0.84078660 0.01109838 0.00000000
0.87999043 0.01109838 0.00000000
0.91960021 0.01109838 0.00000000
0.95960640 0.01109838 0.00000000
1.00000000 0.01109838 0.00000000
0.00000000 0.02730284 0.00000000
0.01109838 0.02730284 0.00000000
0.02730284 0.02730284 0.00000000
0.04622722 0.02730284 0.00000000
0.06716699 0.02730284 0.00000000
0.08974557 0.02730284 0.00000000
0.11372235 0.02730284 0.00000000
0.13892797 0.02730284 0.00000000
0.16523571 0.02730284 0.00000000
0.19254656 0.02730284 0.00000000
0.22078068 0.02730284 0.00000000
0.24987212 0.02730284 0.00000000
0.27976530 0.02730284 0.00000000
0.31041268 0.02730284 0.00000000
0.34177299 0.02730284 0.00000000
0.37381008 0.02730284 0.00000000
0.40649195 0.02730284 0.00000000
0.43979003 0.02730284 0.00000000
0.47367864 0.02730284 0.00000000
0.50813456 0.02730284 0.00000000
0.54313666 0.02730284 0.00000000
0.57866562 0.02730284 0.00000000
0.61470373 0.02730284 0.00000000
0.65123462 0.02730284 0.00000000
0.68824315 0.02730284 0.00000000
0.72571529 0.02730284 0.00000000
0.76363793 0.02730284 0.00000000
0.80199885 0.02730284 0.00000000
0.84078660 0.02730284 0.00000000
0.87999043 0.02730284 0.00000000
0.91960021 0.02730284 0.00000000
0.95960640 0.02730284 0.00000000
1.00000000 0.02730284 0.00000000
0.00000000 0.04622722 0.00000000
0.01109838 0.04622722 0.00000000
0.02730284 0.04622722 0.00000000
0.04622722 0.04622722 0.00000000
0.06716699 0.04622722 0.00000000
0.08974557 0.04622722 0.00000000
0.11372235 0.04622722 0.00000000
0.13892797 0.04622722 0.00000000
0.16523571 0.04622722 0.00000000
0.19254656 0.04622722 0.00000000
0.22078068 0.04622722 0.00000000
0.24987212 0.04622722 0.00000000
0.27976530 0.04622722 0.00000000
0.31041268 0.04622722 0.00000000
0.34177299 0.04622722 0.00000000
0.37381008 0.04622722 0.00000000
0.40649195 0.04622722 0.00000000
0.43979003 0.04622722 0.00000000
0.47367864 0.04622722 0.00000000
0.50813456 0.04622722 0.00000000
0.54313666 0.04622722 0.00000000
0.57866562 0.04622722 0.00000000
0.61470373 0.04622722 0.00000000
0.65123462 0.04622722 0.00000000
0.68824315 0.04622722 0.00000000
0.72571529 0.04622722 0.00000000
0.76363793 0.04622722 0.00000000
0.80199885 0.04622722 0.00000000
0.84078660 0.04622722 0.00000000
0.87999043 0.04622722 0.00000000
0.91960021 0.04622722 0.00000000
0.95960640 0.04622722 0.00000000
1.00000000 0.04622722 0.00000000
0.00000000 0.06716699 0.00000000
0.01109838 0.06716699 0.00000000
0.02730284 0.06716699 0.00000000
0.04622722 0.06716699 0.00000000
0.06716699 0.06716699 0.00000000
0.08974557 0.06716699 0.00000000
0.11372235 0.06716699 0.00000000
0.13892797 0.06716699 0.00000000
0.16523571 0.06716699 0.00000000
0.19254656 0.06716699 0.00000000
0.22078068 0.06716699 0.00000000
0.24987212 0.06716699 0.00000000
0.27976530 0.06716699 0.00000000
0.31041268 0.06716699 0.00000000
0.34177299 0.06716699 0.00000000
0.37381008 0.06716699 0.00000000
0.40649195 0.06716699 0.00000000
0.43979003 0.06716699 0.00000000
0.47367864 0.06716699 0.00000000
0.50813456 0.06716699 0.00000000
0.54313666 0.06716699 0.00000000
0.57866562 0.06716699 0.00000000
0.61470373 0.06716699 0.00000000
0.65123462 0.06716699 0.00000000
0.68824315 0.06716699 0.00000000
0.72571529 0.06716699 0.00000000
0.76363793 0.06716699 0.00000000
0.80199885 0.06716699 0.00000000
0.84078660 0.06716699 0.00000000
0.87999043 0.06716699 0.00000000
0.91960021 0.06716699 0.00000000
0.95960640 0.06716699 0.00000000
1.00000000 0.06716699 0.00000000
0.00000000 0.08974557 0.00000000
0.01109838 0.08974557 0.00000000
0.02730284 0.08974557 0.00000000
0.04622722 0.08974557 0.00000000
0.06716699 0.08974557 0.00000000
0.08974557 0.08974557 0.00000000
0.11372235 0.08974557 0.00000000
0.13892797 0.08974557 0.00000000
0.16523571 0.08974557 0.00000000
0.19254656 0.08974557 0.00000000
0.22078068 0.08974557 0.00000000
0.24987212 0.08974557 0.00000000
0.27976530 0.08974557 0.00000000
0.31041268 0.08974557 0.00000000
0.34177299 0.08974557 0.00000000
0.37381008 0.08974557 0.00000000
0.40649195 0.08974557 0.00000000
0.43979003 0.08974557 0.00000000
0.47367864 0.08974557 0.00000000
0.50813456 0.08974557 0.00000000
0.54313666 0.08974557 0.00000000
0.57866562 0.08974557 0.00000000
0.61470373 0.08974557 0.00000000
0.65123462 0.08974557 0.00000000
0.68824315 0.08974557 0.00000000
0.72571529 0.08974557 0.00000000
0.76363793 0.08974557 0.00000000
0.80199885 0.08974557 0.00000000
0.84078660 0.08974557 0.00000000
0.87999043 0.08974557 0.00000000
0.91960021 0.08974557 0.00000000
0.95960640 0.08974557 0.00000000
1.00000000 0.08974557 0.00000000
0.00000000 0.11372235 0.00000000
0.01109838 0.11372235 0.00000000
0.02730284 0.11372235 0.00000000
0.04622722 0.11372235 0.00000000
0.06716699 0.11372235 0.00000000
0.08974557 0.11372235 0.00000000
0.11372235 0.11372235 0.00000000
0.13892797 0.11372235 0.00000000
0.16523571 0.11372235 0.00000000
0.19254656 0.11372235 0.00000000
0.22078068 0.11372235 0.00000000
0.24987212 0.11372235 0.00000000
0.27976530 0.11372235 0.00000000
0.31041268 0.11372235 0.00000000
0.34177299 0.11372235 0.00000000
0.37381008 0.11372235 0.00000000
0.40649195 0.11372235 0.00000000
0.43979003 0.11372235 0.00000000
0.47367864 0.11372235 0.00000000
0.50813456 0.11372235 0.00000000
0.54313666 0.11372235 0.00000000
0.57866562 0.11372235 0.00000000
0.61470373 0.11372235 0.00000000
0.65123462 0.11372235 0.00000000
0.68824315 0.11372235 0.00000000
0.72571529 0.11372235 0.00000000
0.76363793 0.11372235 0.00000000
0.80199885 0.11372235 0.00000000
0.84078660 0.11372235 0.00000000
0.87999043 0.11372235 0.00000000
0.91960021 0.11372235 0.00000000
0.95960640 0.11372235 0.00000000
1.00000000 0.11372235 0.00000000
0.00000000 0.13892797 0.00000000
0.01109838 0.13892797 0.00000000
0.02730284 0.13892797 0.00000000
0.04622722 0.13892797 0.00000000
0.06716699 0.13892797 0.00000000
0.08974557 0.13892797 0.00000000
0.11372235 0.13892797 0.00000000
0.13892797 0.13892797 0.00000000
0.16523571 0.13892797 0.00000000
0.19254656 0.13892797 0.00000000
0.22078068 0.13892797 0.00000000
0.24987212 0.13892797 0.00000000
0.27976530 0.13892797 0.00000000
0.31041268 0.13892797 0.00000000
0.34177299 0.13892797 0.00000000
0.37381008 0.13892797 0.00000000
0.40649195 0.13892797 0.00000000
0.43979003 0.13892797 0.00000000
0.47367864 0.13892797 0.00000000
0.50813456 0.13892797 0.00000000
0.54313666 0.13892797 0.00000000
0.57866562 0.13892797 0.00000000
0.61470373 0.13892797 0.00000000
0.65123462 0.13892797 0.00000000
0.68824315 0.13892797 0.00000000
0.72571529 0.13892797 0.00000000
0.76363793 0.13892797 0.00000000
0.80199885 0.13892797 0.00000000
0.84078660 0.13892797 0.00000000
0.87999043 0.13892797 0.00000000
0.91960021 0.13892797 0.00000000
0.95960640 0.13892797 0.00000000
1.00000000 0.13892797 0.00000000
0.00000000 0.16523571 0.00000000
0.01109838 0.16523571 0.00000000
0.02730284 0.16523571 0.00000000
0.04622722 0.16523571 0.00000000
0.06716699 0.16523571 0.00000000
0.08974557 0.16523571 0.00000000
0.11372235 0.16523571 0.00000000
0.13892797 0.16523571 0.00000000
0.16523571 0.16523571 0.00000000
0.19254656 0.16523571 0.00000000
0.22078068 0.16523571 0.00000000
0.24987212 0.16523571 0.00000000
0.27976530 0.16523571 0.00000000
0.31041268 0.16523571 0.00000000
0.34177299 0.16523571 0.00000000
0.37381008 0.16523571 0.00000000
0.40649195 0.16523571 0.00000000
0.43979003 0.16523571 0.00000000
0.47367864 0.16523571 0.00000000
0.50813456 0.16523571 0.00000000
0.54313666 0.16523571 0.00000000
0.57866562 0.16523571 0.00000000
0.61470373 0.16523571 0.00000000
0.65123462 0.16523571 0.00000000
0.68824315 0.16523571 0.00000000
0.72571529 0.16523571 0.00000000
0.76363793 0.16523571 0.00000000
0.80199885 0.16523571 0.00000000
0.84078660 0.16523571 0.00000000
0.87999043 0.16523571 0.00000000
0.91960021 0.16523571 0.00000000
0.95960640 0.16523571 0.00000000
1.00000000 0.16523571 0.00000000
0.00000000 0.19254656 0.00000000
0.01109838 0.19254656 0.00000000
0.02730284 0.19254656 0.00000000
0.04622722 0.19254656 0.00000000
0.06716699 0.19254656 0.00000000
0.08974557 0.19254656 0.00000000
0.11372235 0.19254656 0.00000000
0.13892797 0.19254656 0.00000000
0.16523571 0.19254656 0.00000000
0.19254656 0.19254656 0.00000000
0.22078068 0.19254656 0.00000000
0.24987212 0.19254656 0.00000000
0.27976530 0.19254656 0.00000000
0.31041268 0.19254656 0.00000000
0.34177299 0.19254656 0.00000000
0.37381008 0.19254656 0.00000000
0.40649195 0.19254656 0.00000000
0.43979003 0.19254656 0.00000000
0.47367864 0.19254656 0.00000000
0.50813456 0.19254656 0.00000000
0.54313666 0.19254656 0.00000000
0.57866562 0.19254656 0.00000000
0.61470373 0.19254656 0.00000000
0.65123462 0.19254656 0.00000000
0.68824315 0.19254656 0.00000000
0.72571529 0.19254656 0.00000000
0.76363793 0.19254656 0.00000000
0.80199885 0.19254656 0.00000000
0.84078660 0.19254656 0.00000000
0.87999043 0.19254656 0.00000000
0.91960021 0.19254656 0.00000000
0.95960640 0.19254656 0.00000000
1.00000000 0.19254656 0.00000000
0.00000000 0.22078068 0.00000000
0.01109838 0.22078068 0.00000000
0.02730284 0.22078068 0.00000000
0.04622722 0.22078068 0.00000000
0.06716699 0.22078068 0.00000000
0.08974557 0.22078068 0.00000000
0.11372235 0.22078068 0.00000000
0.13892797 0.22078068 0.00000000
0.16523571 0.22078068 0.00000000
0.19254656 0.22078068 0.00000000
0.22078068 0.22078068 0.00000000
0.24987212 0.22078068 0.00000000
0.27976530 0.22078068 0.00000000
0.31041268 0.22078068 0.00000000
0.34177299 0.22078068 0.00000000
0.37381008 0.22078068 0.00000000
0.40649195 0.22078068 0.00000000
0.43979003 0.22078068 0.00000000
0.47367864 0.22078068 0.00000000
0.50813456 0.22078068 0.00000000
0.54313666 0.22078068 0.00000000
0.57866562 0.22078068 0.00000000
0.61470373 0.22078068 0.00000000
0.65123462 0.22078068 0.00000000
0.68824315 0.22078068 0.00000000
0.72571529 0.22078068 0.00000000
0.76363793 0.22078068 0.00000000
0.80199885 0.22078068 0.00000000
0.84078660 0.22078068 0.00000000
0.87999043 0.22078068 0.00000000
0.91960021 0.22078068 0.00000000
0.95960640 0.22078068 0.00000000
1.00000000 0.22078068 0.00000000
0.00000000 0.24987212 0.00000000
0.01109838 0.24987212 0.00000000
0.02730284 0.24987212 0.00000000
0.04622722 0.24987212 0.00000000
0.06716699 0.24987212 0.00000000
0.08974557 0.24987212 0.00000000
0.11372235 0.24987212 0.00000000
0.13892797 0.24987212 0.00000000
0.16523571 0.24987212 0.00000000
0.19254656 0.24987212 0.00000000
0.22078068 0.24987212 0.00000000
0.24987212 0.24987212 0.00000000
0.27976530 0.24987212 0.00000000
0.31041268 0.24987212 0.00000000
0.34177299 0.24987212 0.00000000
0.37381008 0.24987212 0.00000000
0.40649195 0.24987212 0.00000000
0.43979003 0.24987212 0.00000000
0.47367864 0.24987212 0.00000000
0.50813456 0.24987212 0.00000000
0.54313666 0.24987212 0.00000000
0.57866562 0.24987212 0.00000000
0.61470373 0.24987212 0.00000000
0.65123462 0.24987212 0.00000000
0.68824315 0.24987212 0.00000000
0.72571529 0.24987212 0.00000000
0.76363793 0.24987212 0.00000000
0.80199885 0.24987212 0.00000000
0.84078660 0.24987212 0.00000000
0.87999043 0.24987212 0.00000000
0.91960021 0.24987212 0.00000000
0.95960640 0.24987212 0.00000000
1.00000000 0.24987212 0.00000000
0.00000000 0.27976530 0.00000000
0.01109838 0.27976530 0.00000000
0.02730284 0.27976530 0.00000000
0.04622722 0.27976530 0.00000000
0.06716699 0.27976530 0.00000000
0.08974557 0.27976530 0.00000000
0.11372235 0.27976530 0.00000000
0.13892797 0.27976530 0.00000000
0.16523571 0.27976530 0.00000000
0.19254656 0.27976530 0.00000000
0.22078068 0.27976530 0.00000000
0.24987212 0.27976530 0.00000000
0.27976530 0.27976530 0.00000000
0.31041268 0.27976530 0.00000000
0.34177299 0.27976530 0.00000000
0.37381008 0.27976530 0.00000000
0.40649195 0.27976530 0.00000000
0.43979003 0.27976530 0.00000000
0.47367864 0.27976530 0.00000000
0.50813456 0.27976530 0.00000000
0.54313666 0.27976530 0.00000000
0.57866562 0.27976530 0.00000000
0.61470373 0.27976530 0.00000000
0.65123462 0.27976530 0.00000000
0.68824315 0.27976530 0.00000000
0.72571529 0.27976530 0.00000000
0.76363793 0.27976530 0.00000000
0.80199885 0.27976530 0.00000000
0.84078660 0.27976530 0.00000000
0.87999043 0.27976530 0.00000000
0.91960021 0.27976530 0.00000000
0.95960640 0.27976530 0.00000000
1.00000000 0.27976530 0.00000000
0.00000000 0.31041268 0.00000000
0.01109838 0.31041268 0.00000000
0.02730284 0.31041268 0.00000000
0.04622722 0.31041268 0.00000000
0.06716699 0.31041268 0.00000000
0.08974557 0.31041268 0.00000000
0.11372235 0.31041268 0.00000000
0.13892797 0.31041268 0.00000000
0.16523571 0.31041268 0.00000000
0.19254656 0.31041268 0.00000000
0.22078068 0.31041268 0.00000000
0.24987212 0.31041268 0.00000000
0.27976530 0.31041268 0.00000000
0.31041268 0.31041268 0.00000000
0.34177299 0.31041268 0.00000000
0.37381008 0.31041268 0.00000000
0.40649195 0.31041268 0.00000000
0.43979003 0.31041268 0.00000000
0.47367864 0.31041268 0.00000000
0.50813456 0.31041268 0.00000000
0.54313666 0.31041268 0.00000000
0.57866562 0.31041268 0.00000000
0.61470373 0.31041268 0.00000000
0.65123462 0.31041268 0.00000000
0.68824315 0.31041268 0.00000000
0.72571529 0.31041268 0.00000000
0.76363793 0.31041268 0.00000000
0.80199885 0.31041268 0.00000000
0.84078660 0.31041268 0.00000000
0.87999043 0.31041268 0.00000000
0.91960021 0.31041268 0.00000000
0.95960640 0.31041268 0.00000000
1.00000000 0.31041268 0.00000000
0.00000000 0.34177299 0.00000000
0.01109838 0.34177299 0.00000000
0.02730284 0.34177299 0.00000000
0.04622722 0.34177299 0.00000000
0.06716699 0.34177299 0.00000000
0.08974557 0.34177299 0.00000000
0.11372235 0.34177299 0.00000000
0.13892797 0.34177299 0.00000000
0.16523571 0.34177299 0.00000000
0.19254656 0.34177299 0.00000000
0.22078068 0.34177299 0.00000000
0.24987212 0.34177299 0.00000000
0.27976530 0.34177299 0.00000000
0.31041268 0.34177299 0.00000000
0.34177299 0.34177299 0.00000000
0.37381008 0.34177299 0.00000000
0.40649195 0.34177299 0.00000000
0.43979003 0.34177299 0.00000000
0.47367864 0.34177299 0.00000000
0.50813456 0.34177299 0.00000000
0.54313666 0.34177299 0.00000000
0.57866562 0.34177299 0.00000000
0.61470373 0.34177299 0.00000000
0.65123462 0.34177299 0.00000000
0.68824315 0.34177299 0.00000000
0.72571529 0.34177299 0.00000000
0.76363793 0.34177299 0.00000000
0.80199885 0.34177299 0.00000000
0.84078660 0.34177299 0.00000000
0.87999043 0.34177299 0.00000000
0.91960021 0.34177299 0.00000000
0.95960640 0.34177299 0.00000000
1.00000000 0.34177299 0.00000000
0.00000000 0.37381008 0.00000000
0.01109838 0.37381008 0.00000000
0.02730284 0.37381008 0.00000000
0.04622722 0.37381008 0.00000000
0.06716699 0.37381008 0.00000000
0.08974557 0.37381008 0.00000000
0.11372235 0.37381008 0.00000000
0.13892797 0.37381008 0.00000000
0.16523571 0.37381008 0.00000000
0.19254656 0.37381008 0.00000000
0.22078068 0.37381008 0.00000000
0.24987212 0.37381008 0.00000000
0.27976530 0.37381008 0.00000000
0.31041268 0.37381008 0.00000000
0.34177299 0.37381008 0.00000000
0.37381008 0.37381008 0.00000000
0.40649195 0.37381008 0.00000000
0.43979003 0.37381008 0.00000000
0.47367864 0.37381008 0.00000000
0.50813456 0.37381008 0.00000000
0.54313666 0.37381008 0.00000000
0.57866562 0.37381008 0.00000000
0.61470373 0.37381008 0.00000000
0.65123462 0.37381008 0.00000000
0.68824315 0.37381008 0.00000000
0.72571529 0.37381008 0.00000000
0.76363793 0.37381008 0.00000000
0.80199885 0.37381008 0.00000000
0.84078660 0.37381008 0.00000000
0.87999043 0.37381008 0.00000000
0.91960021 0.37381008 0.00000000
0.95960640 0.37381008 0.00000000
1.00000000 0.37381008 0.00000000
0.00000000 0.40649195 0.00000000
0.01109838 0.40649195 0.00000000
0.02730284 0.40649195 0.00000000
0.04622722 0.40649195 0.00000000
0.06716699 0.40649195 0.00000000
0.08974557 0.40649195 0.00000000
0.11372235 0.40649195 0.00000000
0.13892797 0.40649195 0.00000000
0.16523571 0.40649195 0.00000000
0.19254656 0.40649195 0.00000000
0.22078068 0.40649195 0.00000000
0.24987212 0.40649195 0.00000000
0.27976530 0.40649195 0.00000000
0.31041268 0.40649195 0.00000000
0.34177299 0.40649195 0.00000000
0.37381008 0.40649195 0.00000000
0.40649195 0.40649195 0.00000000
0.43979003 0.40649195 0.00000000
0.47367864 0.40649195 0.00000000
0.50813456 0.40649195 0.00000000
0.54313666 0.40649195 0.00000000
0.57866562 0.40649195 0.00000000
0.61470373 0.40649195 0.00000000
0.65123462 0.40649195 0.00000000
0.68824315 0.40649195 0.00000000
0.72571529 0.40649195 0.00000000
0.76363793 0.40649195 0.00000000
0.80199885 0.40649195 0.00000000
0.84078660 0.40649195 0.00000000
0.87999043 0.40649195 0.00000000
0.91960021 0.40649195 0.00000000
0.95960640 0.40649195 0.00000000
1.00000000 0.40649195 0.00000000
0.00000000 0.43979003 0.00000000
0.01109838 0.43979003 0.00000000
0.02730284 0.43979003 0.00000000
0.04622722 0.43979003 0.00000000
0.06716699 0.43979003 0.00000000
0.08974557 0.43979003 0.00000000
0.11372235 0.43979003 0.00000000
0.13892797 0.43979003 0.00000000
0.16523571 0.43979003 0.00000000
0.19254656 0.43979003 0.00000000
0.22078068 0.43979003 0.00000000
0.24987212 0.43979003 0.00000000
0.27976530 0.43979003 0.00000000
0.31041268 0.43979003 0.00000000
0.34177299 0.43979003 0.00000000
0.37381008 0.43979003 0.00000000
0.40649195 0.43979003 0.00000000
0.43979003 0.43979003 0.00000000
0.47367864 0.43979003 0.00000000
0.50813456 0.43979003 0.00000000
0.54313666 0.43979003 0.00000000
0.57866562 0.43979003 0.00000000
0.61470373 0.43979003 0.00000000
0.65123462 0.43979003 0.00000000
0.68824315 0.43979003 0.00000000
0.72571529 0.43979003 0.00000000
0.76363793 0.43979003 0.00000000
0.80199885 0.43979003 0.00000000
0.84078660 0.43979003 0.00000000
0.87999043 0.43979003 0.00000000
0.91960021 0.43979003 0.00000000
0.95960640 0.43979003 0.00000000
1.00000000 0.43979003 0.00000000
0.00000000 0.47367864 0.00000000
0.01109838 0.47367864 0.00000000
0.02730284 0.47367864 0.00000000
0.04622722 0.47367864 0.00000000
0.06716699 0.47367864 0.00000000
0.08974557 0.47367864 0.00000000
0.11372235 0.47367864 0.00000000
0.13892797 0.47367864 0.00000000
0.16523571 0.47367864 0.00000000
0.19254656 0.47367864 0.00000000
0.22078068 0.47367864 0.00000000
0.24987212 0.47367864 0.00000000
0.27976530 0.47367864 0.00000000
0.31041268 0.47367864 0.00000000
0.34177299 0.47367864 0.00000000
0.37381008 0.47367864 0.00000000
0.40649195 0.47367864 0.00000000
0.43979003 0.47367864 0.00000000
0.47367864 0.47367864 0.00000000
0.50813456 0.47367864 0.00000000
0.54313666 0.47367864 0.00000000
0.57866562 0.47367864 0.00000000
0.61470373 0.47367864 0.00000000
0.65123462 0.47367864 0.00000000
0.68824315 0.47367864 0.00000000
0.72571529 0.47367864 0.00000000
0.76363793 0.47367864 0.00000000
0.80199885 0.47367864 0.00000000
0.84078660 0.47367864 0.00000000
0.87999043 0.47367864 0.00000000
0.91960021 0.47367864 0.00000000
0.95960640 0.47367864 0.00000000
1.00000000 0.47367864 0.00000000
0.00000000 0.50813456 0.00000000
0.01109838 0.50813456 0.00000000
0.02730284 0.50813456 0.00000000
0.04622722 0.50813456 0.00000000
0.06716699 0.50813456 0.00000000
0.08974557 0.50813456 0.00000000
0.11372235 0.50813456 0.00000000
0.13892797 0.50813456 0.00000000
0.16523571 0.50813456 0.00000000
0.19254656 0.50813456 0.00000000
0.22078068 0.50813456 0.00000000
0.24987212 0.50813456 0.00000000
0.27976530 0.50813456 0.00000000
0.31041268 0.50813456 0.00000000
0.34177299 0.50813456 0.00000000
0.37381008 0.50813456 0.00000000
0.40649195 0.50813456 0.00000000
0.43979003 0.50813456 0.00000000
0.47367864 0.50813456 0.00000000
0.50813456 0.50813456 0.00000000
0.54313666 0.50813456 0.00000000
0.57866562 0.50813456 0.00000000
0.61470373 0.50813456 0.00000000
0.65123462 0.50813456 0.00000000
0.68824315 0.50813456 0.00000000
0.72571529 0.50813456 0.00000000
0.76363793 0.50813456 0.00000000
0.80199885 0.50813456 0.00000000
0.84078660 0.50813456 0.00000000
0.87999043 0.50813456 0.00000000
0.91960021 0.50813456 0.00000000
0.95960640 0.50813456 0.00000000
1.00000000 0.50813456 0.00000000
0.00000000 0.54313666 0.00000000
0.01109838 0.54313666 0.00000000
0.02730284 0.54313666 0.00000000
0.04622722 0.54313666 0.00000000
0.06716699 0.54313666 0.00000000
0.08974557 0.54313666 0.00000000
0.11372235 0.54313666 0.00000000
0.13892797 0.54313666 0.00000000
0.16523571 0.54313666 0.00000000
0.19254656 0.54313666 0.00000000
0.22078068 0.54313666 0.00000000
0.24987212 0.54313666 0.00000000
0.27976530 0.54313666 0.00000000
0.31041268 0.54313666 0.00000000
0.34177299 0.54313666 0.00000000
0.37381008 0.54313666 0.00000000
0.40649195 0.54313666 0.00000000
0.43979003 0.54313666 0.00000000
0.47367864 0.54313666 0.00000000
0.50813456 0.54313666 0.00000000
0.54313666 0.54313666 0.00000000
0.57866562 0.54313666 0.00000000
0.61470373 0.54313666 0.00000000
0.65123462 0.54313666 0.00000000
0.68824315 0.54313666 0.00000000
0.72571529 0.54313666 0.00000000
0.76363793 0.54313666 0.00000000
0.80199885 0.54313666 0.00000000
0.84078660 0.54313666 0.00000000
0.87999043 0.54313666 0.00000000
0.91960021 0.54313666 0.00000000
0.95960640 0.54313666 0.00000000
1.00000000 0.54313666 0.00000000
0.00000000 0.57866562 0.00000000
0.01109838 0.57866562 0.00000000
0.02730284 0.57866562 0.00000000
0.04622722 0.57866562 0.00000000
0.06716699 0.57866562 0.00000000
0.08974557 0.57866562 0.00000000
0.11372235 0.57866562 0.00000000
0.13892797 0.57866562 0.00000000
0.16523571 0.57866562 0.00000000
0.19254656 0.57866562 0.00000000
0.22078068 0.57866562 0.00000000
0.24987212 0.57866562 0.00000000
0.27976530 0.57866562 0.00000000
0.31041268 0.57866562 0.00000000
0.34177299 0.57866562 0.00000000
0.37381008 0.57866562 0.00000000
0.40649195 0.57866562 0.00000000
0.43979003 0.57866562 0.00000000
0.47367864 0.57866562 0.00000000
0.50813456 0.57866562 0.00000000
0.54313666 0.57866562 0.00000000
0.57866562 0.57866562 0.00000000
0.61470373 0.57866562 0.00000000
0.65123462 0.57866562 0.00000000
0.68824315 0.57866562 0.00000000
