app/src/main/assets/luts/loglut.cube
TITLE "loglut"
# Restore LUT for CameraManager WDR tonemap curve
# WDR curve in app: wdr = linear^0.35
# This LUT maps WDR output back to standard display gamma (2.2)
# Effective output: display = wdr^1.2987012987012987
DOMAIN_MIN 0.0 0.0 0.0
DOMAIN_MAX 1.0 1.0 1.0
LUT_3D_SIZE 5
0.00000000 0.00000000 0.00000000
0.16523571 0.00000000 0.00000000
0.40649195 0.00000000 0.00000000
0.68824315 0.00000000 0.00000000
1.00000000 0.00000000 0.00000000
0.00000000 0.16523571 0.00000000
0.16523571 0.16523571 0.00000000
0.40649195 0.16523571 0.00000000
0.68824315 0.16523571 0.00000000
1.00000000 0.16523571 0.00000000
0.00000000 0.40649195 0.00000000
0.16523571 0.40649195 0.00000000
0.40649195 0.40649195 0.00000000
0.68824315 0.40649195 0.00000000
1.00000000 0.40649195 0.00000000
0.00000000 0.68824315 0.00000000
0.16523571 0.68824315 0.00000000
0.40649195 0.68824315 0.00000000
0.68824315 0.68824315 0.00000000
1.00000000 0.68824315 0.00000000
0.00000000 1.00000000 0.00000000
0.16523571 1.00000000 0.00000000
0.40649195 1.00000000 0.00000000
0.68824315 1.00000000 0.00000000
1.00000000 1.00000000 0.00000000
0.00000000 0.00000000 0.16523571
0.16523571 0.00000000 0.16523571
0.40649195 0.00000000 0.16523571
0.68824315 0.00000000 0.16523571
1.00000000 0.00000000 0.16523571
0.00000000 0.16523571 0.16523571
0.16523571 0.16523571 0.16523571
0.40649195 0.16523571 0.16523571
0.68824315 0.16523571 0.16523571
1.00000000 0.16523571 0.16523571
0.00000000 0.40649195 0.16523571
0.16523571 0.40649195 0.16523571
0.40649195 0.40649195 0.16523571
0.68824315 0.40649195 0.16523571
1.00000000 0.40649195 0.16523571
0.00000000 0.68824315 0.16523571
0.16523571 0.68824315 0.16523571
0.40649195 0.68824315 0.16523571
0.68824315 0.68824315 0.16523571
1.00000000 0.68824315 0.16523571
0.00000000 1.00000000 0.16523571
0.16523571 1.00000000 0.16523571
0.40649195 1.00000000 0.16523571
0.68824315 1.00000000 0.16523571
1.00000000 1.00000000 0.16523571
0.00000000 0.00000000 0.40649195
0.16523571 0.00000000 0.40649195
0.40649195 0.00000000 0.40649195
0.68824315 0.00000000 0.40649195
1.00000000 0.00000000 0.40649195
0.00000000 0.16523571 0.40649195
0.16523571 0.16523571 0.40649195
0.40649195 0.16523571 0.40649195
0.68824315 0.16523571 0.40649195
1.00000000 0.16523571 0.40649195
0.00000000 0.40649195 0.40649195
0.16523571 0.40649195 0.40649195
0.40649195 0.40649195 0.40649195
0.68824315 0.40649195 0.40649195
1.00000000 0.40649195 0.40649195
0.00000000 0.68824315 0.40649195
0.16523571 0.68824315 0.40649195
0.40649195 0.68824315 0.40649195
0.68824315 0.68824315 0.40649195
1.00000000 0.68824315 0.40649195
0.00000000 1.00000000 0.40649195
0.16523571 1.00000000 0.40649195
0.40649195 1.00000000 0.40649195
0.68824315 1.00000000 0.40649195
1.00000000 1.00000000 0.40649195
0.00000000 0.00000000 0.68824315
0.16523571 0.00000000 0.68824315
0.40649195 0.00000000 0.68824315
0.68824315 0.00000000 0.68824315
1.00000000 0.00000000 0.68824315
0.00000000 0.16523571 0.68824315
0.16523571 0.16523571 0.68824315
0.40649195 0.16523571 0.68824315
0.68824315 0.16523571 0.68824315
1.00000000 0.16523571 0.68824315
0.00000000 0.40649195 0.68824315
0.16523571 0.40649195 0.68824315
0.40649195 0.40649195 0.68824315
0.68824315 0.40649195 0.68824315
1.00000000 0.40649195 0.68824315
0.00000000 0.68824315 0.68824315
0.16523571 0.68824315 0.68824315
0.40649195 0.68824315 0.68824315
0.68824315 0.68824315 0.68824315
1.00000000 0.68824315 0.68824315
0.00000000 1.00000000 0.68824315
0.16523571 1.00000000 0.68824315
0.40649195 1.00000000 0.68824315
0.68824315 1.00000000 0.68824315
1.00000000 1.00000000 0.68824315
0.00000000 0.00000000 1.00000000
0.16523571 0.00000000 1.00000000
0.40649195 0.00000000 1.00000000
0.68824315 0.00000000 1.00000000
1.00000000 0.00000000 1.00000000
0.00000000 0.16523571 1.00000000
0.16523571 0.16523571 1.00000000
0.40649195 0.16523571 1.00000000
0.68824315 0.16523571 1.00000000
1.00000000 0.16523571 1.00000000
0.00000000 0.40649195 1.00000000
0.16523571 0.40649195 1.00000000
0.40649195 0.40649195 1.00000000
0.68824315 0.40649195 1.00000000
1.00000000 0.40649195 1.00000000
0.00000000 0.68824315 1.00000000
0.16523571 0.68824315 1.00000000
0.40649195 0.68824315 1.00000000
0.68824315 0.68824315 1.00000000
1.00000000 0.68824315 1.00000000
0.00000000 1.00000000 1.00000000
0.16523571 1.00000000 1.00000000
0.40649195 1.00000000 1.00000000
0.68824315 1.00000000 1.00000000
1.00000000 1.00000000 1.00000000
