app/src/main/assets/luts/loglut.cube
TITLE "loglut"
# Restore LUT for CameraManager WDR tonemap curve
# WDR curve in app: wdr = linear^0.35
# This LUT maps WDR output back to standard display gamma (2.2)
# Effective output: display = wdr^1.2987012987012987
DOMAIN_MIN 0.0 0.0 0.0
DOMAIN_MAX 1.0 1.0 1.0
LUT_3D_SIZE 9
0.00000000 0.00000000 0.00000000
0.06716699 0.00000000 0.00000000
0.16523571 0.00000000 0.00000000
0.27976530 0.00000000 0.00000000
0.40649195 0.00000000 0.00000000
0.54313666 0.00000000 0.00000000
0.68824315 0.00000000 0.00000000
0.84078660 0.00000000 0.00000000
1.00000000 0.00000000 0.00000000
0.00000000 0.06716699 0.00000000
0.06716699 0.06716699 0.00000000
0.16523571 0.06716699 0.00000000
0.27976530 0.06716699 0.00000000
0.40649195 0.06716699 0.00000000
0.54313666 0.06716699 0.00000000
0.68824315 0.06716699 0.00000000
0.84078660 0.06716699 0.00000000
1.00000000 0.06716699 0.00000000
0.00000000 0.16523571 0.00000000
0.06716699 0.16523571 0.00000000
0.16523571 0.16523571 0.00000000
0.27976530 0.16523571 0.00000000
0.40649195 0.16523571 0.00000000
0.54313666 0.16523571 0.00000000
0.68824315 0.16523571 0.00000000
0.84078660 0.16523571 0.00000000
1.00000000 0.16523571 0.00000000
0.00000000 0.27976530 0.00000000
0.06716699 0.27976530 0.00000000
0.16523571 0.27976530 0.00000000
0.27976530 0.27976530 0.00000000
0.40649195 0.27976530 0.00000000
0.54313666 0.27976530 0.00000000
0.68824315 0.27976530 0.00000000
0.84078660 0.27976530 0.00000000
1.00000000 0.27976530 0.00000000
0.00000000 0.40649195 0.00000000
0.06716699 0.40649195 0.00000000
0.16523571 0.40649195 0.00000000
0.27976530 0.40649195 0.00000000
0.40649195 0.40649195 0.00000000
0.54313666 0.40649195 0.00000000
0.68824315 0.40649195 0.00000000
0.84078660 0.40649195 0.00000000
1.00000000 0.40649195 0.00000000
0.00000000 0.54313666 0.00000000
0.06716699 0.54313666 0.00000000
0.16523571 0.54313666 0.00000000
0.27976530 0.54313666 0.00000000
0.40649195 0.54313666 0.00000000
0.54313666 0.54313666 0.00000000
0.68824315 0.54313666 0.00000000
0.84078660 0.54313666 0.00000000
1.00000000 0.54313666 0.00000000
0.00000000 0.68824315 0.00000000
0.06716699 0.68824315 0.00000000
0.16523571 0.68824315 0.00000000
0.27976530 0.68824315 0.00000000
0.40649195 0.68824315 0.00000000
0.54313666 0.68824315 0.00000000
0.68824315 0.68824315 0.00000000
0.84078660 0.68824315 0.00000000
1.00000000 0.68824315 0.00000000
0.00000000 0.84078660 0.00000000
0.06716699 0.84078660 0.00000000
0.16523571 0.84078660 0.00000000
0.27976530 0.84078660 0.00000000
0.40649195 0.84078660 0.00000000
0.54313666 0.84078660 0.00000000
0.68824315 0.84078660 0.00000000
0.84078660 0.84078660 0.00000000
1.00000000 0.84078660 0.00000000
0.00000000 1.00000000 0.00000000
0.06716699 1.00000000 0.00000000
0.16523571 1.00000000 0.00000000
0.27976530 1.00000000 0.00000000
0.40649195 1.00000000 0.00000000
0.54313666 1.00000000 0.00000000
0.68824315 1.00000000 0.00000000
0.84078660 1.00000000 0.00000000
1.00000000 1.00000000 0.00000000
0.00000000 0.00000000 0.06716699
0.06716699 0.00000000 0.06716699
0.16523571 0.00000000 0.06716699
0.27976530 0.00000000 0.06716699
0.40649195 0.00000000 0.06716699
0.54313666 0.00000000 0.06716699
0.68824315 0.00000000 0.06716699
0.84078660 0.00000000 0.06716699
1.00000000 0.00000000 0.06716699
0.00000000 0.06716699 0.06716699
0.06716699 0.06716699 0.06716699
0.16523571 0.06716699 0.06716699
0.27976530 0.06716699 0.06716699
0.40649195 0.06716699 0.06716699
0.54313666 0.06716699 0.06716699
0.68824315 0.06716699 0.06716699
0.84078660 0.06716699 0.06716699
1.00000000 0.06716699 0.06716699
0.00000000 0.16523571 0.06716699
0.06716699 0.16523571 0.06716699
0.16523571 0.16523571 0.06716699
0.27976530 0.16523571 0.06716699
0.40649195 0.16523571 0.06716699
0.54313666 0.16523571 0.06716699
0.68824315 0.16523571 0.06716699
0.84078660 0.16523571 0.06716699
1.00000000 0.16523571 0.06716699
0.00000000 0.27976530 0.06716699
0.06716699 0.27976530 0.06716699
0.16523571 0.27976530 0.06716699
0.27976530 0.27976530 0.06716699
0.40649195 0.27976530 0.06716699
0.54313666 0.27976530 0.06716699
0.68824315 0.27976530 0.06716699
0.84078660 0.27976530 0.06716699
1.00000000 0.27976530 0.06716699
0.00000000 0.40649195 0.06716699
0.06716699 0.40649195 0.06716699
0.16523571 0.40649195 0.06716699
0.27976530 0.40649195 0.06716699
0.40649195 0.40649195 0.06716699
0.54313666 0.40649195 0.06716699
0.68824315 0.40649195 0.06716699
0.84078660 0.40649195 0.06716699
1.00000000 0.40649195 0.06716699
0.00000000 0.54313666 0.06716699
0.06716699 0.54313666 0.06716699
0.16523571 0.54313666 0.06716699
0.27976530 0.54313666 0.06716699
0.40649195 0.54313666 0.06716699
0.54313666 0.54313666 0.06716699
0.68824315 0.54313666 0.06716699
0.84078660 0.54313666 0.06716699
1.00000000 0.54313666 0.06716699
0.00000000 0.68824315 0.06716699
0.06716699 0.68824315 0.06716699
0.16523571 0.68824315 0.06716699
0.27976530 0.68824315 0.06716699
0.40649195 0.68824315 0.06716699
0.54313666 0.68824315 0.06716699
0.68824315 0.68824315 0.06716699
0.84078660 0.68824315 0.06716699
1.00000000 0.68824315 0.06716699
0.00000000 0.84078660 0.06716699
0.06716699 0.84078660 0.06716699
0.16523571 0.84078660 0.06716699
0.27976530 0.84078660 0.06716699
0.40649195 0.84078660 0.06716699
0.54313666 0.84078660 0.06716699
0.68824315 0.84078660 0.06716699
0.84078660 0.84078660 0.06716699
1.00000000 0.84078660 0.06716699
0.00000000 1.00000000 0.06716699
0.06716699 1.00000000 0.06716699
0.16523571 1.00000000 0.06716699
0.27976530 1.00000000 0.06716699
0.40649195 1.00000000 0.06716699
0.54313666 1.00000000 0.06716699
0.68824315 1.00000000 0.06716699
0.84078660 1.00000000 0.06716699
1.00000000 1.00000000 0.06716699
0.00000000 0.00000000 0.16523571
0.06716699 0.00000000 0.16523571
0.16523571 0.00000000 0.16523571
0.27976530 0.00000000 0.16523571
0.40649195 0.00000000 0.16523571
0.54313666 0.00000000 0.16523571
0.68824315 0.00000000 0.16523571
0.84078660 0.00000000 0.16523571
1.00000000 0.00000000 0.16523571
0.00000000 0.06716699 0.16523571
0.06716699 0.06716699 0.16523571
0.16523571 0.06716699 0.16523571
0.27976530 0.06716699 0.16523571
0.40649195 0.06716699 0.16523571
0.54313666 0.06716699 0.16523571
0.68824315 0.06716699 0.16523571
0.84078660 0.06716699 0.16523571
1.00000000 0.06716699 0.16523571
0.00000000 0.16523571 0.16523571
0.06716699 0.16523571 0.16523571
0.16523571 0.16523571 0.16523571
0.27976530 0.16523571 0.16523571
0.40649195 0.16523571 0.16523571
0.54313666 0.16523571 0.16523571
0.68824315 0.16523571 0.16523571
0.84078660 0.16523571 0.16523571
1.00000000 0.16523571 0.16523571
0.00000000 0.27976530 0.16523571
0.06716699 0.27976530 0.16523571
0.16523571 0.27976530 0.16523571
0.27976530 0.27976530 0.16523571
0.40649195 0.27976530 0.16523571
0.54313666 0.27976530 0.16523571
0.68824315 0.27976530 0.16523571
0.84078660 0.27976530 0.16523571
1.00000000 0.27976530 0.16523571
0.00000000 0.40649195 0.16523571
0.06716699 0.40649195 0.16523571
0.16523571 0.40649195 0.16523571
0.27976530 0.40649195 0.16523571
0.40649195 0.40649195 0.16523571
0.54313666 0.40649195 0.16523571
0.68824315 0.40649195 0.16523571
0.84078660 0.40649195 0.16523571
1.00000000 0.40649195 0.16523571
0.00000000 0.54313666 0.16523571
0.06716699 0.54313666 0.16523571
0.16523571 0.54313666 0.16523571
0.27976530 0.54313666 0.16523571
0.40649195 0.54313666 0.16523571
0.54313666 0.54313666 0.16523571
0.68824315 0.54313666 0.16523571
0.84078660 0.54313666 0.16523571
1.00000000 0.54313666 0.16523571
0.00000000 0.68824315 0.16523571
0.06716699 0.68824315 0.16523571
0.16523571 0.68824315 0.16523571
0.27976530 0.68824315 0.16523571
0.40649195 0.68824315 0.16523571
0.54313666 0.68824315 0.16523571
0.68824315 0.68824315 0.16523571
0.84078660 0.68824315 0.16523571
1.00000000 0.68824315 0.16523571
0.00000000 0.84078660 0.16523571
0.06716699 0.84078660 0.16523571
0.16523571 0.84078660 0.16523571
0.27976530 0.84078660 0.16523571
0.40649195 0.84078660 0.16523571
0.54313666 0.84078660 0.16523571
0.68824315 0.84078660 0.16523571
0.84078660 0.84078660 0.16523571
1.00000000 0.84078660 0.16523571
0.00000000 1.00000000 0.16523571
0.06716699 1.00000000 0.16523571
0.16523571 1.00000000 0.16523571
0.27976530 1.00000000 0.16523571
0.40649195 1.00000000 0.16523571
0.54313666 1.00000000 0.16523571
0.68824315 1.00000000 0.16523571
0.84078660 1.00000000 0.16523571
1.00000000 1.00000000 0.16523571
0.00000000 0.00000000 0.27976530
0.06716699 0.00000000 0.27976530
0.16523571 0.00000000 0.27976530
0.27976530 0.00000000 0.27976530
0.40649195 0.00000000 0.27976530
0.54313666 0.00000000 0.27976530
0.68824315 0.00000000 0.27976530
0.84078660 0.00000000 0.27976530
1.00000000 0.00000000 0.27976530
0.00000000 0.06716699 0.27976530
0.06716699 0.06716699 0.27976530
0.16523571 0.06716699 0.27976530
0.27976530 0.06716699 0.27976530
0.40649195 0.06716699 0.27976530
0.54313666 0.06716699 0.27976530
0.68824315 0.06716699 0.27976530
0.84078660 0.06716699 0.27976530
1.00000000 0.06716699 0.27976530
0.00000000 0.16523571 0.27976530
0.06716699 0.16523571 0.27976530
0.16523571 0.16523571 0.27976530
0.27976530 0.16523571 0.27976530
0.40649195 0.16523571 0.27976530
0.54313666 0.16523571 0.27976530
0.68824315 0.16523571 0.27976530
0.84078660 0.16523571 0.27976530
1.00000000 0.16523571 0.27976530
0.00000000 0.27976530 0.27976530
0.06716699 0.27976530 0.27976530
0.16523571 0.27976530 0.27976530
0.27976530 0.27976530 0.27976530
0.40649195 0.27976530 0.27976530
0.54313666 0.27976530 0.27976530
0.68824315 0.27976530 0.27976530
0.84078660 0.27976530 0.27976530
1.00000000 0.27976530 0.27976530
0.00000000 0.40649195 0.27976530
0.06716699 0.40649195 0.27976530
0.16523571 0.40649195 0.27976530
0.27976530 0.40649195 0.27976530
0.40649195 0.40649195 0.27976530
0.54313666 0.40649195 0.27976530
0.68824315 0.40649195 0.27976530
0.84078660 0.40649195 0.27976530
1.00000000 0.40649195 0.27976530
0.00000000 0.54313666 0.27976530
0.06716699 0.54313666 0.27976530
0.16523571 0.54313666 0.27976530
0.27976530 0.54313666 0.27976530
0.40649195 0.54313666 0.27976530
0.54313666 0.54313666 0.27976530
0.68824315 0.54313666 0.27976530
0.84078660 0.54313666 0.27976530
1.00000000 0.54313666 0.27976530
0.00000000 0.68824315 0.27976530
0.06716699 0.68824315 0.27976530
0.16523571 0.68824315 0.27976530
0.27976530 0.68824315 0.27976530
0.40649195 0.68824315 0.27976530
0.54313666 0.68824315 0.27976530
0.68824315 0.68824315 0.27976530
0.84078660 0.68824315 0.27976530
1.00000000 0.68824315 0.27976530
0.00000000 0.84078660 0.27976530
0.06716699 0.84078660 0.27976530
0.16523571 0.84078660 0.27976530
0.27976530 0.84078660 0.27976530
0.40649195 0.84078660 0.27976530
0.54313666 0.84078660 0.27976530
0.68824315 0.84078660 0.27976530
0.84078660 0.84078660 0.27976530
1.00000000 0.84078660 0.27976530
0.00000000 1.00000000 0.27976530
0.06716699 1.00000000 0.27976530
0.16523571 1.00000000 0.27976530
0.27976530 1.00000000 0.27976530
0.40649195 1.00000000 0.27976530
0.54313666 1.00000000 0.27976530
0.68824315 1.00000000 0.27976530
0.84078660 1.00000000 0.27976530
1.00000000 1.00000000 0.27976530
0.00000000 0.00000000 0.40649195
0.06716699 0.00000000 0.40649195
0.16523571 0.00000000 0.40649195
0.27976530 0.00000000 0.40649195
0.40649195 0.00000000 0.40649195
0.54313666 0.00000000 0.40649195
0.68824315 0.00000000 0.40649195
0.84078660 0.00000000 0.40649195
1.00000000 0.00000000 0.40649195
0.00000000 0.06716699 0.40649195
0.06716699 0.06716699 0.40649195
0.16523571 0.06716699 0.40649195
0.27976530 0.06716699 0.40649195
0.40649195 0.06716699 0.40649195
0.54313666 0.06716699 0.40649195
0.68824315 0.06716699 0.40649195
0.84078660 0.06716699 0.40649195
1.00000000 0.06716699 0.40649195
0.00000000 0.16523571 0.40649195
0.06716699 0.16523571 0.40649195
0.16523571 0.16523571 0.40649195
0.27976530 0.16523571 0.40649195
0.40649195 0.16523571 0.40649195
0.54313666 0.16523571 0.40649195
0.68824315 0.16523571 0.40649195
0.84078660 0.16523571 0.40649195
1.00000000 0.16523571 0.40649195
0.00000000 0.27976530 0.40649195
0.06716699 0.27976530 0.40649195
0.16523571 0.27976530 0.40649195
0.27976530 0.27976530 0.40649195
0.40649195 0.27976530 0.40649195
0.54313666 0.27976530 0.40649195
0.68824315 0.27976530 0.40649195
0.84078660 0.27976530 0.40649195
1.00000000 0.27976530 0.40649195
0.00000000 0.40649195 0.40649195
0.06716699 0.40649195 0.40649195
0.16523571 0.40649195 0.40649195
0.27976530 0.40649195 0.40649195
0.40649195 0.40649195 0.40649195
0.54313666 0.40649195 0.40649195
0.68824315 0.40649195 0.40649195
0.84078660 0.40649195 0.40649195
1.00000000 0.40649195 0.40649195
0.00000000 0.54313666 0.40649195
0.06716699 0.54313666 0.40649195
0.16523571 0.54313666 0.40649195
0.27976530 0.54313666 0.40649195
0.40649195 0.54313666 0.40649195
0.54313666 0.54313666 0.40649195
0.68824315 0.54313666 0.40649195
0.84078660 0.54313666 0.40649195
1.00000000 0.54313666 0.40649195
0.00000000 0.68824315 0.40649195
0.06716699 0.68824315 0.40649195
0.16523571 0.68824315 0.40649195
0.27976530 0.68824315 0.40649195
0.40649195 0.68824315 0.40649195
0.54313666 0.68824315 0.40649195
0.68824315 0.68824315 0.40649195
0.84078660 0.68824315 0.40649195
1.00000000 0.68824315 0.40649195
0.00000000 0.84078660 0.40649195
0.06716699 0.84078660 0.40649195
0.16523571 0.84078660 0.40649195
0.27976530 0.84078660 0.40649195
0.40649195 0.84078660 0.40649195
0.54313666 0.84078660 0.40649195
0.68824315 0.84078660 0.40649195
0.84078660 0.84078660 0.40649195
1.00000000 0.84078660 0.40649195
0.00000000 1.00000000 0.40649195
0.06716699 1.00000000 0.40649195
0.16523571 1.00000000 0.40649195
0.27976530 1.00000000 0.40649195
0.40649195 1.00000000 0.40649195
0.54313666 1.00000000 0.40649195
0.68824315 1.00000000 0.40649195
0.84078660 1.00000000 0.40649195
1.00000000 1.00000000 0.40649195
0.00000000 0.00000000 0.54313666
0.06716699 0.00000000 0.54313666
0.16523571 0.00000000 0.54313666
0.27976530 0.00000000 0.54313666
0.40649195 0.00000000 0.54313666
0.54313666 0.00000000 0.54313666
0.68824315 0.00000000 0.54313666
0.84078660 0.00000000 0.54313666
1.00000000 0.00000000 0.54313666
0.00000000 0.06716699 0.54313666
0.06716699 0.06716699 0.54313666
0.16523571 0.06716699 0.54313666
0.27976530 0.06716699 0.54313666
0.40649195 0.06716699 0.54313666
0.54313666 0.06716699 0.54313666
0.68824315 0.06716699 0.54313666
0.84078660 0.06716699 0.54313666
1.00000000 0.06716699 0.54313666
0.00000000 0.16523571 0.54313666
0.06716699 0.16523571 0.54313666
0.16523571 0.16523571 0.54313666
0.27976530 0.16523571 0.54313666
0.40649195 0.16523571 0.54313666
0.54313666 0.16523571 0.54313666
0.68824315 0.16523571 0.54313666
0.84078660 0.16523571 0.54313666
1.00000000 0.16523571 0.54313666
0.00000000 0.27976530 0.54313666
0.06716699 0.27976530 0.54313666
0.16523571 0.27976530 0.54313666
0.27976530 0.27976530 0.54313666
0.40649195 0.27976530 0.54313666
0.54313666 0.27976530 0.54313666
0.68824315 0.27976530 0.54313666
0.84078660 0.27976530 0.54313666
1.00000000 0.27976530 0.54313666
0.00000000 0.40649195 0.54313666
0.06716699 0.40649195 0.54313666
0.16523571 0.40649195 0.54313666
0.27976530 0.40649195 0.54313666
0.40649195 0.40649195 0.54313666
0.54313666 0.40649195 0.54313666
0.68824315 0.40649195 0.54313666
0.84078660 0.40649195 0.54313666
1.00000000 0.40649195 0.54313666
0.00000000 0.54313666 0.54313666
0.06716699 0.54313666 0.54313666
0.16523571 0.54313666 0.54313666
0.27976530 0.54313666 0.54313666
0.40649195 0.54313666 0.54313666
0.54313666 0.54313666 0.54313666
0.68824315 0.54313666 0.54313666
0.84078660 0.54313666 0.54313666
1.00000000 0.54313666 0.54313666
0.00000000 0.68824315 0.54313666
0.06716699 0.68824315 0.54313666
0.16523571 0.68824315 0.54313666
0.27976530 0.68824315 0.54313666
0.40649195 0.68824315 0.54313666
0.54313666 0.68824315 0.54313666
0.68824315 0.68824315 0.54313666
0.84078660 0.68824315 0.54313666
1.00000000 0.68824315 0.54313666
0.00000000 0.84078660 0.54313666
0.06716699 0.84078660 0.54313666
0.16523571 0.84078660 0.54313666
0.27976530 0.84078660 0.54313666
0.40649195 0.84078660 0.54313666
0.54313666 0.84078660 0.54313666
0.68824315 0.84078660 0.54313666
0.84078660 0.84078660 0.54313666
1.00000000 0.84078660 0.54313666
0.00000000 1.00000000 0.54313666
0.06716699 1.00000000 0.54313666
0.16523571 1.00000000 0.54313666
0.27976530 1.00000000 0.54313666
0.40649195 1.00000000 0.54313666
0.54313666 1.00000000 0.54313666
0.68824315 1.00000000 0.54313666
0.84078660 1.00000000 0.54313666
1.00000000 1.00000000 0.54313666
0.00000000 0.00000000 0.68824315
0.06716699 0.00000000 0.68824315
0.16523571 0.00000000 0.68824315
0.27976530 0.00000000 0.68824315
0.40649195 0.00000000 0.68824315
0.54313666 0.00000000 0.68824315
0.68824315 0.00000000 0.68824315
0.84078660 0.00000000 0.68824315
1.00000000 0.00000000 0.68824315
0.00000000 0.06716699 0.68824315
0.06716699 0.06716699 0.68824315
0.16523571 0.06716699 0.68824315
0.27976530 0.06716699 0.68824315
0.40649195 0.06716699 0.68824315
0.54313666 0.06716699 0.68824315
0.68824315 0.06716699 0.68824315
0.84078660 0.06716699 0.68824315
1.00000000 0.06716699 0.68824315
0.00000000 0.16523571 0.68824315
0.06716699 0.16523571 0.68824315
0.16523571 0.16523571 0.68824315
0.27976530 0.16523571 0.68824315
0.40649195 0.16523571 0.68824315
0.54313666 0.16523571 0.68824315
0.68824315 0.16523571 0.68824315
0.84078660 0.16523571 0.68824315
1.00000000 0.16523571 0.68824315
0.00000000 0.27976530 0.68824315
0.06716699 0.27976530 0.68824315
0.16523571 0.27976530 0.68824315
0.27976530 0.27976530 0.68824315
0.40649195 0.27976530 0.68824315
0.54313666 0.27976530 0.68824315
0.68824315 0.27976530 0.68824315
0.84078660 0.27976530 0.68824315
1.00000000 0.27976530 0.68824315
0.00000000 0.40649195 0.68824315
0.06716699 0.40649195 0.68824315
0.16523571 0.40649195 0.68824315
0.27976530 0.40649195 0.68824315
0.40649195 0.40649195 0.68824315
0.54313666 0.40649195 0.68824315
0.68824315 0.40649195 0.68824315
0.84078660 0.40649195 0.68824315
1.00000000 0.40649195 0.68824315
0.00000000 0.54313666 0.68824315
0.06716699 0.54313666 0.68824315
0.16523571 0.54313666 0.68824315
0.27976530 0.54313666 0.68824315
0.40649195 0.54313666 0.68824315
0.54313666 0.54313666 0.68824315
0.68824315 0.54313666 0.68824315
0.84078660 0.54313666 0.68824315
1.00000000 0.54313666 0.68824315
0.00000000 0.68824315 0.68824315
0.06716699 0.68824315 0.68824315
0.16523571 0.68824315 0.68824315
0.27976530 0.68824315 0.68824315
0.40649195 0.68824315 0.68824315
0.54313666 0.68824315 0.68824315
0.68824315 0.68824315 0.68824315
0.84078660 0.68824315 0.68824315
1.00000000 0.68824315 0.68824315
0.00000000 0.84078660 0.68824315
0.06716699 0.84078660 0.68824315
0.16523571 0.84078660 0.68824315
0.27976530 0.84078660 0.68824315
0.40649195 0.84078660 0.68824315
0.54313666 0.84078660 0.68824315
0.68824315 0.84078660 0.68824315
0.84078660 0.84078660 0.68824315
1.00000000 0.84078660 0.68824315
0.00000000 1.00000000 0.68824315
0.06716699 1.00000000 0.68824315
0.16523571 1.00000000 0.68824315
0.27976530 1.00000000 0.68824315
0.40649195 1.00000000 0.68824315
0.54313666 1.00000000 0.68824315
0.68824315 1.00000000 0.68824315
0.84078660 1.00000000 0.68824315
1.00000000 1.00000000 0.68824315
0.00000000 0.00000000 0.84078660
0.06716699 0.00000000 0.84078660
0.16523571 0.00000000 0.84078660
0.27976530 0.00000000 0.84078660
0.40649195 0.00000000 0.84078660
0.54313666 0.00000000 0.84078660
0.68824315 0.00000000 0.84078660
0.84078660 0.00000000 0.84078660
1.00000000 0.00000000 0.84078660
0.00000000 0.06716699 0.84078660
0.06716699 0.06716699 0.84078660
0.16523571 0.06716699 0.84078660
0.27976530 0.06716699 0.84078660
0.40649195 0.06716699 0.84078660
0.54313666 0.06716699 0.84078660
0.68824315 0.06716699 0.84078660
0.84078660 0.06716699 0.84078660
1.00000000 0.06716699 0.84078660
0.00000000 0.16523571 0.84078660
0.06716699 0.16523571 0.84078660
0.16523571 0.16523571 0.84078660
0.27976530 0.16523571 0.84078660
0.40649195 0.16523571 0.84078660
0.54313666 0.16523571 0.84078660
0.68824315 0.16523571 0.84078660
0.84078660 0.16523571 0.84078660
1.00000000 0.16523571 0.84078660
0.00000000 0.27976530 0.84078660
0.06716699 0.27976530 0.84078660
0.16523571 0.27976530 0.84078660
0.27976530 0.27976530 0.84078660
0.40649195 0.27976530 0.84078660
0.54313666 0.27976530 0.84078660
0.68824315 0.27976530 0.84078660
0.84078660 0.27976530 0.84078660
1.00000000 0.27976530 0.84078660
0.00000000 0.40649195 0.84078660
0.06716699 0.40649195 0.84078660
0.16523571 0.40649195 0.84078660
0.27976530 0.40649195 0.84078660
0.40649195 0.40649195 0.84078660
0.54313666 0.40649195 0.84078660
0.68824315 0.40649195 0.84078660
0.84078660 0.40649195 0.84078660
1.00000000 0.40649195 0.84078660
0.00000000 0.54313666 0.84078660
0.06716699 0.54313666 0.84078660
0.16523571 0.54313666 0.84078660
0.27976530 0.54313666 0.84078660
0.40649195 0.54313666 0.84078660
0.54313666 0.54313666 0.84078660
0.68824315 0.54313666 0.84078660
0.84078660 0.54313666 0.84078660
1.00000000 0.54313666 0.84078660
0.00000000 0.68824315 0.84078660
0.06716699 0.68824315 0.84078660
0.16523571 0.68824315 0.84078660
0.27976530 0.68824315 0.84078660
0.40649195 0.68824315 0.84078660
0.54313666 0.68824315 0.84078660
0.68824315 0.68824315 0.84078660
0.84078660 0.68824315 0.84078660
1.00000000 0.68824315 0.84078660
0.00000000 0.84078660 0.84078660
0.06716699 0.84078660 0.84078660
0.16523571 0.84078660 0.84078660
0.27976530 0.84078660 0.84078660
0.40649195 0.84078660 0.84078660
0.54313666 0.84078660 0.84078660
0.68824315 0.84078660 0.84078660
0.84078660 0.84078660 0.84078660
1.00000000 0.84078660 0.84078660
0.00000000 1.00000000 0.84078660
0.06716699 1.00000000 0.84078660
0.16523571 1.00000000 0.84078660
0.27976530 1.00000000 0.84078660
0.40649195 1.00000000 0.84078660
0.54313666 1.00000000 0.84078660
0.68824315 1.00000000 0.84078660
0.84078660 1.00000000 0.84078660
1.00000000 1.00000000 0.84078660
0.00000000 0.00000000 1.00000000
0.06716699 0.00000000 1.00000000
0.16523571 0.00000000 1.00000000
0.27976530 0.00000000 1.00000000
0.40649195 0.00000000 1.00000000
0.54313666 0.00000000 1.00000000
0.68824315 0.00000000 1.00000000
0.84078660 0.00000000 1.00000000
1.00000000 0.00000000 1.00000000
0.00000000 0.06716699 1.00000000
0.06716699 0.06716699 1.00000000
0.16523571 0.06716699 1.00000000
0.27976530 0.06716699 1.00000000
0.40649195 0.06716699 1.00000000
0.54313666 0.06716699 1.00000000
0.68824315 0.06716699 1.00000000
0.84078660 0.06716699 1.00000000
1.00000000 0.06716699 1.00000000
0.00000000 0.16523571 1.00000000
0.06716699 0.16523571 1.00000000
0.16523571 0.16523571 1.00000000
0.27976530 0.16523571 1.00000000
0.40649195 0.16523571 1.00000000
0.54313666 0.16523571 1.00000000
0.68824315 0.16523571 1.00000000
0.84078660 0.16523571 1.00000000
1.00000000 0.16523571 1.00000000
0.00000000 0.27976530 1.00000000
0.06716699 0.27976530 1.00000000
0.16523571 0.27976530 1.00000000
0.27976530 0.27976530 1.00000000
0.40649195 0.27976530 1.00000000
0.54313666 0.27976530 1.00000000
0.68824315 0.27976530 1.00000000
0.84078660 0.27976530 1.00000000
1.00000000 0.27976530 1.00000000
0.00000000 0.40649195 1.00000000
0.06716699 0.40649195 1.00000000
0.16523571 0.40649195 1.00000000
0.27976530 0.40649195 1.00000000
0.40649195 0.40649195 1.00000000
0.54313666 0.40649195 1.00000000
0.68824315 0.40649195 1.00000000
0.84078660 0.40649195 1.00000000
1.00000000 0.40649195 1.00000000
0.00000000 0.54313666 1.00000000
0.06716699 0.54313666 1.00000000
0.16523571 0.54313666 1.00000000
0.27976530 0.54313666 1.00000000
0.40649195 0.54313666 1.00000000
0.54313666 0.54313666 1.00000000
0.68824315 0.54313666 1.00000000
0.84078660 0.54313666 1.00000000
1.00000000 0.54313666 1.00000000
0.00000000 0.68824315 1.00000000
0.06716699 0.68824315 1.00000000
0.16523571 0.68824315 1.00000000
0.27976530 0.68824315 1.00000000
0.40649195 0.68824315 1.00000000
0.54313666 0.68824315 1.00000000
0.68824315 0.68824315 1.00000000
0.84078660 0.68824315 1.00000000
1.00000000 0.68824315 1.00000000
0.00000000 0.84078660 1.00000000
0.06716699 0.84078660 1.00000000
0.16523571 0.84078660 1.00000000
0.27976530 0.84078660 1.00000000
0.40649195 0.84078660 1.00000000
0.54313666 0.84078660 1.00000000
0.68824315 0.84078660 1.00000000
0.84078660 0.84078660 1.00000000
1.00000000 0.84078660 1.00000000
0.00000000 1.00000000 1.00000000
0.06716699 1.00000000 1.00000000
0.16523571 1.00000000 1.00000000
0.27976530 1.00000000 1.00000000
0.40649195 1.00000000 1.00000000
0.54313666 1.00000000 1.00000000
0.68824315 1.00000000 1.00000000
0.84078660 1.00000000 1.00000000
1.00000000 1.00000000 1.00000000
